!!!COM: Palestrina, Giovanni Perluigi da
!!!OPR: Missa Ave Maria (1594)
!!!OMD: Gloria
!!!OTL: Quoniam
**kern	**kern	**kern	**kern
*Ibass	*Itenor	*Icalto	*Icant
!Bassus	!Tenor	!Altus	!Cantus
*clefF4	*clefGv2	*clefG2	*clefG2
*k[]	*k[]	*k[]	*k[]
*A:aeo	*A:aeo	*A:aeo	*A:aeo
*M3/2	*M3/2	*M3/2	*M3/2
=97	=97	=97	=97
2.A	2.a	2.cc	2.ee
4A	4a	4cc	4ee
2A	2a	2cc	2ee
=98	=98	=98	=98
1E	1g	1b	1ee
2G	2g	2b	2dd
=99	=99	=99	=99
2A	2e	2a	2cc
1F	1A	1a	1dd
=100	=100	=100	=100
1E	1B	1g#	1ee
2r	2r	2r	2r
=101	=101	=101	=101
1A	1c	1a	1ee
2D	2f	2a	2dd
=102	=102	=102	=102
2A	2e	2a	2cc
2.G	2.g	2.b	2.dd
4G	4g	4b	4dd
=103	=103	=103	=103
1c	1g	1cc	1ee
2A	2a	2cc	2ee
=104	=104	=104	=104
1c	1g	1cc	1ee
2G	2g	2b	2dd
=105	=105	=105	=105
2A	2e	2a	2cc#
2.d	2.f	2.a	2.dd
4d	4f	4a	4dd
=106	=106	=106	=106
2c	2g	2cc	1ee
2.A	2r	2.cc	.
.	[2a	.	2r
4G	.	4b	.
=107	=107	=107	=107
4F	4a]	2.a	1.ff
4E	4g	.	.
1D	4f	.	.
.	4e	4g	.
.	2d	2f	.
=108	=108	=108	=108
2C#	2e	2a	2ee
1D	1f	1a	1dd
*-	*-	*-	*-
!!!CDT: 1525/^1526/-1594/2/2
!!!OCY: Italia
!!!AGN: Mass (Paraphrase)
!!!AST: renaissance, vocal
!!!ASW: Prayer
!!!PWK: Masses, Book 7
!!!RNB: Cadence finals: D
!!!YOR: Le Opere Complete, v. 23, p. 1
!!!YOO: Rome, Italy: Fratelli Scalera
!!!END: 1992//
!!!EED: John Miller
!!!YEC: Copyright 2000, John Miller
!!!YEN: United States of America
!!!YEM: Rights to all derivative electronic formats reserved.
!!!YEM: Refer to licensing agreement for further details.
!!!YEM: This file must be accompanied by the licensing agreement.
!!!YEM: A copy of the licensing agreement may be found at http://www.music-cog.ohio-state.edu/HumdrumDatabases/Palestrina/license.txt
!!!EMD: converted to Humdrum by Bret Aarden
